X: 37
T: POLKA DE CHEVROUX
M: 4/4
L: 1/8
Q:1/4=120
K:G
|BGG/2F/2G/2A/2 BGGF/2G/2|AFAF G/2F/2G/2A/2B3/2 z/2 |BGG/2F/2G/2A/2 BGGF
/2G/2|AFAF GBG3/2 z/2 |
BGG/2F/2G/2A/2 BGGF/2G/2|AFAF G/2F/2G/2A/2B3/2 z/2 |BGG/2F/2G/2A/2 BGGF/
2G/2|AFAF GBG3/2 z/2 |
AB/2c/2d/2^c/2d/2e/2 d/2=c/2B/2A/2G3/2 z/2 |A/2B/2A/2G/2F/2G/2A/2B/2 cAB
G|AB/2c/2d/2^c/2d/2e/2 d/2=c/2B/2A/2G3/2 z/2 |A/2B/2A/2G/2F/2G/2A/2B/2 c
AG3/2|
